!!!OTL: Symphony No. 5 in E minor, Movement 2
!!!COM: Tchaikovsky
!!!OMD: Andante cantibile, con alcuna licenza
**kern	**dynam
*staff1	*staff1
*Ifagot	*Ifagot
*I"Bassoon 2	*I"Bassoon 2
*clefF4	*clefF4
*clefF4	*clefF4
*k[f#c#]	*k[f#c#]
*M12/8	*M12/8
*tb144	*
=1-	=1-
1.r	.
=2	=2
1.r	.
=3	=3
1.r	.
=4	=4
1.r	.
=5	=5
1.r	.
=6	=6
1.r	.
=7	=7
1.r	.
=8	=8
1.r	.
=9	=9
1.r	.
=10	=10
1.r	.
=11	=11
1.r	.
=12	=12
1.r	.
=13	=13
!!LO:TX:i:Z=10:t=animando
1.r	.
=14	=14
1.r	.
=15	=15
!!LO:TX:i:Z=10:t=riten.
1.r	.
=16	=16
!!LO:REH:t=A
!!LO:TX:i:Z=10:t=sostenuto
1.r	.
=17	=17
1.r	.
=18	=18
1.r	.
=19	=19
1.r	.
=20	=20
1.r	.
=21	=21
1.r	.
=22	=22
1.r	.
=23	=23
1.r	.
=24	=24
!!LO:TX:Z=10:b:t=Con moto
1.r	.
!!LO:MREST:break
=25	=25
1.r	.
=26	=26
1.r	.
=27	=27
1.r	.
=28	=28
!!LO:TX:i:Z=10:t=sostenuto
1.r	.
=29	=29
1.r	.
=30	=30
1.r	.
=31	=31
1.r	.
=32	=32
1.r	.
=33	=33
!!LO:TX:b:Z=10:t=Tempo I
[1.AA	pp
=34	=34
(1.AA]	.
=35	=35
!!LO:TX:i:Z=10:t=animando
4BB/)	.
(8BB/	p
4AA^/)	<
(8BB/	(
4AA^/)	(
(8BB/	(
[4.AA^/)	[
=36	=36
!	!
1.AA]	mf
!!LO:TX:i:Z=10:t=riten.
=37	=37
!!LO:TX:i:Z=10:t=sostenuto
[1.AA	pp
=38	=38
2.AA/_	<
4.AA/_	(
8AA/]	[
8r	.
8r	.
=39	=39
!!LO:TX:Z=10:b:t=Poco pi&ugrave; animato
4.D\	f
4.C#/	.
4.BB/	.
4r	.
8r	.
=40	=40
4.D\	.
4.C#/	.
4.BB/	.
4r	.
8r	.
=41	=41
4.GG#/	ff
4.FF#/	.
4.EE#/	.
4r	.
8r	.
=42	=42
4.GG#/	.
4.FF#/	.
2.FFn/	.
=43	=43
!!LO:TX:Z=10:i:t=riten.
[2.EE/	.
4.EE/]	.
4.EE-/	.
=44	=44
!!LO:TX:Z=10:b:t=Tempo I
4r	.
8r	.
2.EE-/	p >
(4.EE-/	]
=45	=45
!!LO:REH:t=B
8DD/)	pp
8r	.
8r	.
4r	.
8r	.
4.G\	pp
(4F#\	<
8En\	[
=46	=46
!!LO:TX:i:Z=10:t=animando
8D\)	.
8r	.
8r	.
4r	.
8r	.
(8.F#\L	mf
8.G#\J	.
8.A\L	.
8.F#\J	.
=47	=47
8B\)	.
8r	.
8r	.
4r	.
8r	.
(8.G#\L	ff
8.A#\J	.
8B\)	.
8r	.
8r	.
=48	=48
!!LO:TX:i:Z=10:t=riten.
8.E^\L	f
8.F#^\J	.
4.Gn^\	.
2.r	.
=49	=49
2.r	.
(4.G\	pp
4F#\	<
8E\	(
=50	=50
!!LO:TX:i:Z=10:t=animando
8D\)	[
8r	.
8r	.
4r	.
8r	.
(8.F#\L	mp
8.G#\J	<
8.A\L	(
8.F#\J	[
=51	=51
8B\)	.
8r	.
8r	.
4r	.
8r	.
(8.G#\L	mf
8.A#\J	.
8.B\L	.
8.B\J)	.
=52	=52
!!LO:REH:t=C
!!LO:TX:b:Z=10:t=Poco pi&ugrave; mosso
!	!
8EE/	.
8r	.
8r	.
4r	.
8r	.
*clefC4	*clefC4
8B\L	.
8B\	.
8B\J	.
8B\L	.
8B\	.
8B\J	.
=53	=53
8c#\L	.
8c#\	.
8c#\J	.
8c#\L	.
8c#\	.
8c#\J	.
8d\L	.
8d\	.
8d\J	.
8d\L	.
8d\	.
8d\J	.
=54	=54
8d#\L	.
8d#\	.
8d#\J	.
8d#\L	.
8d#\	.
8d#\J	.
*clefF4	*clefF4
4.GG#/	.
4.GGn/	.
=55	=55
2.FF#/	.
2.EE#/	.
=56	=56
!!LO:TX:b:Z=10:t=Tempo I
8FF#/	fff
8r	.
8r	.
8B\L	.
8B\	.
8d\J	.
*clefC4	*clefC4
8c#\L	.
8c#\	>
8c#\J	)
8d\L	)
8d\	)
8e\J	]
=57	=57
!!LO:TX:Z=10:i:t=animando
8d\L	ff
8d\	.
8d\J	.
8G\L	.
8G\	.
8B\J	.
8A#\L	.
8A#\	.
8A#\J	.
8B\L	.
8B\	.
8c#\J	.
=58	=58
8B\L	f
8B\	.
8B\J	.
8E/L	.
8E/	.
8E/J	>
4.E/	)
4.E#/	)
!!LO:TX:Z=10:i:t=riten.
=59	=59
!!LO:TX:Z=10:b:t=Pi&ugrave; animato
4.F#/	]
4.F#/	p
4.Fn/	>
4.E/	]
=60	=60
!!LO:TX:Z=10:i:t=riten.
4.D/	p <
4.F#X/	[
4.Fn/	>
4.E/	]
!!LO:MREST:break
=61	=61
!!LO:TX:Z=10:b:t=Poco meno
8F#X/L	p
8F#/	.
8F#/J	.
8F#/L	.
8F#/	.
8F#/J	.
8F#/	.
8r	.
8r	.
4r	.
8r	.
=62	=62
8F#/L	.
8F#/	.
8F#/J	.
8F#/L	.
8F#/	.
8F#/J	.
8F#/	.
8r	.
8r	.
4r	.
8r	.
*clefF4	*clefF4
=63	=63
1.r	.
=64	=64
1.r	.
=65	=65
1.r	.
=66||	=66||
*M4/4	*M4/4
*met(c)	*met(c)
!!LO:TX:Z=10:b:t=Moderato con anima
1r	.
=67	=67
1r	.
=68	=68
1r	.
=69	=69
1r	.
=70	=70
1r	.
*	*
=71	=71
1r	.
=72	=72
1r	.
*clefF4	*clefF4
=73	=73
2r	.
([4CC#^/	mf
16CC#/LL]	.
16EE#/	.
16GG#/	.
16C#/JJ	.
=74	=74
16D\)	.
16r	.
16DD/	.
16r	.
4r	.
([4CC#^/	.
16CC#/LL]	.
16EE#/	.
16GG#/	.
16C#/JJ)	.
!!LO:MREST:break
=75	=75
!!LO:REH:t=D
1r	.
=76	=76
1r	.
=77	=77
(2D\	mf
2C#/)	.
=78	=78
4BB#/	.
4AAn/	.
2GG#/	.
=79	=79
1r	.
=80	=80
1r	.
=81	=81
(2E\	mf
2D#\)	.
=82	=82
4Dn\	.
4C-/	.
2BB-/	.
*	*
=83	=83
!!LO:REH:t=E
1r	.
=84	=84
1r	.
=85	=85
1r	.
=86	=86
1r	.
*	*
=87	=87
2AA-/	mf
2GG/	.
=88	=88
2FF-/	.
2EE-/	.
=89	=89
2DD-/	f
2CCn/	.
=90	=90
2AA/	.
2GG#/	.
=91	=91
!!LO:REH:t=F
8G#\	mf
4G#\	.
4G#\	.
4G#\	.
[8G#\	.
=92	=92
8G#\]	.
4G#\	.
[8G#\	.
8G#\]	<
4G#\	(
[8G#\	[
=93	=93
8G#\]	f
4G#\	.
[8G#\	.
8G#\]	.
4G#\	.
[8G#\	.
=94	=94
8G#\]	.
4G#\	.
4G#\	.
4G#\	.
8G#\	.
=95	=95
4GG#/	f
(8AA#/L	.
!	!
8BB/J	.
8BB#/L	.
8C#/	.
8D#/	.
8E/J)	.
=96	=96
!!LO:TX:i:Z=10:t=stringendo
(8E#\L	.
8F#\	.
8G#\	.
8AA\J)	.
(8AA#/L	.
8BB#/	.
8C#/	.
8D#/J)	.
=97	=97
(8E\L	fff
8E#\	.
8F#\	.
8G#\J)	.
(8A\L	.
8A#\	.
8Bn\	.
8c#\J)	.
=98	=98
(8B\L	.
8An\	.
8G#\	.
8F#\J)	.
(8E/L	.
8D#/	.
8C#/	.
8BB#/J)	.
=99	=99
!!LO:TX:b:Z=10:t=Tempo precedente
1C#	fff
=100	=100
8C#/L	.
8C#/J	.
12AA/L	.
12AA/	.
12AA/J	.
4AA/	.
4AA/	.
=101	=101
1C#	.
=102	=102
8C#/L	.
8C#/J	.
12AA/L	.
12AA/	.
12AA/J	.
4AA/	.
4GGn/	.
=103	=103
4AA/	.
4BB/	.
4C#/	.
4D\	.
=104	=104
8C#/L	.
8C#/J	.
12AA/L	.
12AA/	.
12AA/J	.
4AA/	.
4GG/	.
=105	=105
4AA/	.
4BB/	.
4C#/	.
4D\	.
=106	=106
8C#/L	.
8C#/J	.
4r	.
4r	.
8C#/	.
8r	.
=107	=107
4r	.
8C#/	.
8r	.
4r	.
8C#/	.
8r;	.
=108	=108
*M12/8	*M12/8
*	*
!!LO:TX:b:Z=10:t=Tempo I
1r	.
=109	=109
1r	.
=110	=110
1r	.
=111	=111
1r	.
=112	=112
1r	.
=113	=113
1r	.
=114	=114
1r	.
=115	=115
1r	.
=116	=116
!!LO:REH:t=G
!!LO:TX:i:Z=10:t=animando
1r	.
=117	=117
1r	.
=118	=118
1r	.
!!LO:TX:Z=10:i:t=riten.
*	*
=119	=119
*	*
!!LO:TZ:Z=10:i:t=sostenuto
2.r	.
4r	.
8r	.
*clefC4	*clefC4
8f#~\L	mf <
8g~\	[
8a~\J	>
=120	=120
*rscale:3/2	*
*	*
(4a\	)
2B\)	]
(12e~\L	<
12f#~\	(
12g~\J)	[
=121	=121
(4g\	>
2A\)	]
(12d~\L	<
12e~\	(
12f#~\J)	[
=122	=122
!!LO:TX:i:Z=10:t=animando
4f#\	f
6f#\	.
12f#\	.
([4f#\	.
6f#\]	.
12e\)	.
=123	=123
!!LO:TX:i:Z=10:t=sostenuto
(6b\	ff
[12a\	.
12a\L])	.
(12A~\	mf
12B~\J)	.
(12c#\L	.
12d\)	.
12e~\J	.
(12f#~\L	<
12g~\	(
12a~\J)	[
=124	=124
!!LO:REH:t=H
(4a\	>
2B\)	]
(12e~\L	<
12f#~\	(
12g~\J)	[
=125	=125
(4g\	>
2A\)	]
(12d~\L	<
12e~\	(
12f#~\J)	[
*rscale:1	*
*clefF4	*clefF4
=126	=126
!!LO:TX:i:Z=20:t=animando
*M4/4	*M4/4
*met(c)	*met(c)
16F#\LL	mf
(16G#\	.
16A\	.
16G#\JJ)	.
16r	.
!LO:TX:i:Y=20:t=cresc.	!
(16A\LL	.
16B\	.
16A\JJ)	.
16r	.
(16B\LL	.
16c#\	.
16B\JJ)	.
16r	.
(16c#\LL	.
16d\	.
16c#\JJ)	.
=127	=127
16r	.
(16d\LL	f
16e\	.
16d\JJ)	.
16r	.
(16d\LL	.
16e\	.
16d\JJ)	.
16r	.
!!LO:TX:i:Z=10:t=riten.
(16d\LL	.
16B\	.
16c#\JJ)	.
!	!
(12d\L	f
12c#\)	.
!	!
12B~\J	.
=128	=128
!!LO:TX:Z=20:b:t=Pi&ugrave; mosso
*M12/8	*M12/8
(4.d^\	.
2.c#\)	.
(8A\L	<
8B\)	(
8c#~\J	[
=129	=129
(4.e\	> ]
2.d\)	<
8d~\L	(
8e~\	(
8f#~\J	[
=130	=130
4.g\	f
!	!
4g\	<
8g\	(
!	!
[4.g\	(
4g\]	(
8g\	[
*clefC4	*clefC4
=131	=131
(8.g\L	.
8.f#\J)	.
(8.b~\L	ff
8.a~\J)	.
!	!
(8g\L	.
8f#\)	.
8e~\J	.
8d~\L	.
8c#~\	.
8B~\J	.
=132	=132
(4.d^\	f
2.c#\)	.
(8A\L	<
8B\)	(
8c#~\J	[
=133	=133
(4.e\	> ]
2.d\)	<
8d~\L	(
8e~\	(
8f#~\J	[
=134	=134
!!LO:TX:b:Z=10:t=Un poco pi&ugrave; animato
4.F#/	f
4.F#/	.
4.F#/	.
8d~\L	.
8e~\	.
8f#~\J	.
=135	=135
4.F#/	.
4.F#/	.
4.F#/	.
8g#~\L	ff
8a~\	.
8b~\J	.
=136	=136
4.B\	.
4B\	.
8B\	.
4.B\	.
8g#~\L	.
8a~\	.
8b~\J	.
=137	=137
4.B\	.
4B\	.
8B\	.
8B\	.
4B\	.
4B\	.
[8B\	.
=138	=138
!!LO:REH:t=I
8B\]	.
4B\	.
4B\	.
[8B\	.
8B\]	.
4B\	.
4B\	.
[8B\	.
=139	=139
8B\]	.
4B\	.
4B\	.
[8B\	.
8B\]	.
4B\	.
4B\	.
[8B\	.
=140	=140
8B/L]	.
!!LO:TX:i:Z=10:t=riten.
*clefF4	*clefF4
8DD#/	.
8EE/J	.
8FF#/L	.
8GG/	.
8BB-/J	.
8BBn/L	.
8D#/	.
8E/J	.
8G\L	.
8G#\	.
[8A\J	.
=141	=141
8A\]	.
4Gn\	.
4F#\	.
[8E\	.
8E\]	.
4BB/	.
4GG/	.
8EE/	.
=142	=142
!!LO:TX:b:Z=40:t=Andante mosso
*M4/4	*M4/4
*met(c)	*met(c)
16DD/LL	ff
16F#/	.
16F#/	.
16F#/JJ	.
!	!
16F#\LL	.
16F#\	.
16F#\	.
16F#\JJ	.
2C#/	fff
*	*
=143	=143
2BB/	.
!	!
2AA/	.
!	!
=144	=144
!!LO:TX:i:Z=10:t=animando
4GG#/	.
4GGn/	.
2FF#/	ff
=145	=145
2EE/	.
4DD/	.
4CC#/	.
!!LO:TX:i:Z=10:t=riten.
=146	=146
16DD/LL	ff
16F#/	.
16F#/	.
16F#/JJ	.
16F#\LL	.
16F#\	.
16F#\	.
16F#\JJ	.
2C#/	fff
=147	=147
!!LO:TX:i:Z=20:t=animando un poco
2BB/	.
!	!
2AA/	.
!	!
=148	=148
*	*
!	!
4GG#/	.
4GGn/	.
4FF#/	.
4F#\	.
*	*
=149	=149
*rscale:2/3	*
2.EE/	fff
2.DD/	.
=150	=150
2.CC#/	.
2.CCn/	.
*	*
=151	=151
!!LO:REH:t=K
*rscale:1	*
*M12/8	*M12/8
!LO:TX:i:Y=20:t=cresc.	!
4.BBB/	.
4.AAn/	.
4.GG#/	.
4.GGn/	.
=152	=152
2.FF#/	.
2.EE#/	.
=153	=153
!!LO:TX:Z=10:b:t=Molto pi&ugrave; andante
*M4/4	*M4/4
*met(c)	*met(c)
[4FF#/	ffff
8FF#/L]	.
8GG#/J	.
4AA/	>
8BB/L	)
8C#/J	]
=154	=154
[4D\	ff
!!LO:TX:i:Z=10:t=animando
8D\L]	.
8E\J	.
4F#\	>
8G#\L	)
8A#\J	]
=155	=155
*	*
*	*
16B\LL	f
16B\	.
16B\	.
16B\JJ	.
!	!
16Gn\LL	.
16G\	.
16G\	.
16G\JJ	.
!!LO:TX:i:Z=10:t=riten.
4E\	>
4E#\	]
*	*
=156	=156
!!LO:TX:b:Z=10:t=Pi&ugrave; animato
4F#\	mf <
4F#\	[
4Fn\	>
4E\	]
=157	=157
!!LO:TX:i:Z=10:t=riten.
4D\	p <
4F#\	[
4Fn\	>
4E\	]
*	*
=158||	=158||
*	*
*	*
!	!
!!LO:TX:b:Z=10:t=Allegro non troppo
4.BB/	fff
16BB/LL	.
16BB/JJ	.
4.C#/	.
16BB/LL	.
16AA#/JJ	.
=159	=159
8BB/L	.
8BB/J	.
4r	.
2r	.
=160	=160
4.D\	.
16D\LL	.
16D\JJ	.
4.E\	.
16D/LL	.
16C#/JJ	.
=161	=161
8D\L	.
8D\J	.
4r	.
4r	.
8r	.
8Fn\	.
=162	=162
8E/L	.
8D/	.
8C#/	.
8BB/J	.
4.D\	.
8Fn\	.
=163	=163
8E/L	.
8D/	.
8C#/	.
8BB/J	.
(8D\L	.
8Fn\J	.
8B\L	.
8F\J)	.
=164	=164
12GG/L	fff
12GG/	.
12GG/J	.
12GG/L	.
12GG/	.
12GG/J	.
8GG^/L	.
8GG^/J	.
8GG^/L	.
8GG^/J	.
=165	=165
8GG^/L	.
8GG^/J	.
4r	.
4r	.
(4d\	mf
!!LO:TX:i:Z=10:t=riten.
=166	=166
4cn^\	.
4B-\)	.
4r	.
(4B-\	p
=167	=167
4A^\	.
4G\)	.
4r	.
(4D\	pp <
=168	=168
4E\	(
4F#\)	[
(4A\	>
[4G\	)
=169	=169
2.G\])	]
4B-\	pp
=170||	=170||
*M12/8	*M12/8
!!LO:TX:b:Z=20:t=Tempo I
[4.B-^\	.
4B-\_	.
16B-\LL]	.
16A\JJ	.
[4.A\	pp
8A\]	.
8r	.
8r	.
=171	=171
8DD/L	pp
8DD/	.
8DD/J	.
8DD/L	.
8DD/	.
8DD/J	.
8DD/L	.
8DD/	.
8DD/J	.
8DD/L	.
8DD/	.
8DD/J	.
=172	=172
8DD/L	.
8DD/	.
8DD/J	.
8DD/L	.
8DD/	.
8DD/J	.
8DD/L	.
8DD/	.
8DD/J	.
8DD/L	.
8DD/	.
8DD/J	.
=173	=173
8DD/L	>
8DD/	)
8DD/J	)
8DD/L	)
8DD/	)
8DD/J	]
8D\L	<
8D\	(
8D\J	(
8D\L	(
8D\	(
8D\J	[
=174	=174
8DD/L	>
8DD/	)
8DD/J	)
8DD/L	)
8DD/	)
8DD/J	]
8D\L	<
8D\	(
8D\J	(
8D\L	(
8D\	(
8D\J	[
=175	=175
8DD/L	>
8DD/	)
8DD/J	)
8DD/L	)
8DD/	)
8DD/J	]
8D\L	<
8D\	(
8D\J	(
8D\L	(
8D\	(
8D\J	[
=176	=176
8DD/L	>
8DD/	)
8DD/J	)
8DD/L	)
8DD/	)
8DD/J	]
8D\L	<
8D\	(
8D\J	(
8D\L	(
8D\	(
8D\J	[
=177	=177
8DD/L	>
8DD/	)
8DD/J	)
8DD/L	)
8DD/	)
8DD/J	]
[2.DD/	pp
=178	=178
8DD/L]	.
8DD/	.
8DD/J	.
8DD/L	.
8DD/	.
8DD/J	.
[2.DD/	.
=179	=179
8DD/L]	.
8DD/	pp
8DD/J	.
8DD/	.
8r	.
8r	.
8DD/L	.
8DD/	.
8DD/J	.
8DD/	.
8r	.
8r	.
=180	=180
8DD/L	ppp
8DD/	.
8DD/J	.
4r	.
8r	.
8DD/L	.
8DD/	.
8DD/J	.
4r	.
8r	.
=181	=181
4.DD/	.
4r	.
8r	.
4.DD/	.
4r	.
8r	.
=182	=182
*rscale:3/2	*
*	*
[4DD/	.
12DD/]	.
12r	.
12r	.
2r	.
*rscale:1	*
!	!
!!LO:TX:i:Z=10:t=riten. molto
=183	=183
*	*
1.r	.
=184	=184
1.r;	.
==	==
*-	*-
!!muse2ps: =z21
